X: 24400
T: Lovely Nancy
R: waltz
M: 3/4
K: Dmajor
F2 FE FA|G2 GF GB|A2 fd cA|G3A AG|
F2 FE FA|G2 G2 B/c/d|cd cA GA|1 F3A AG:|2 F4 AB||
|:Bc c2 fd|c2 ~c2 AB|Bc2f fA|G3A AG|
F2 FE FA|G2 G2 B/c/d|cd cA GA|1 F4 AB:|2 F3A AG||
FE F2 F/G/A|G2 G3B|Af fd cA|G3A AG|
FE F2 F/G/A|G2 G2 B/c/d|cd cA GA|1 FE FG AG:|2 F4 AB||
|:c2 cf fd|c4 AB|c2 c2 fA|G3A AG|
FE F2 F/G/A|G2 G2 B/c/d|cd cA GA|1 F4 AB:|2 FE FG AG||

